X:69
%
T:The Silver Spear
C:Traditional
L:1/8
M:C
Q:1/4=80
K:D treble
%
|: "D" FA AA BA FA | de ed "G" Bc dA | "D" FA AA BA FA | df ed B2 A2 |
"D" FA AA BA FA | df ed "G" Bd ef | "G" g3 e "D" f3 e | "Em" df ed B2 A2 :|
|: "D" fa aa bf af | gf ed "G" Bc de | "D" fa aa bf af | gfed B2 A2 |
"D" fa aa bf af | gf ed Bd ef | "G" g3 e "D" f3 e | "Em" df ed B2 A2 :|

